build/svg/cmd/lc_basicstepover.svg

<?xml version="1.0" encoding="UTF-8" standalone="no"?>
<svg
   xmlns:dc="http://purl.org/dc/elements/1.1/"
   xmlns:cc="http://creativecommons.org/ns#"
   xmlns:rdf="http://www.w3.org/1999/02/22-rdf-syntax-ns#"
   xmlns:svg="http://www.w3.org/2000/svg"
   xmlns="http://www.w3.org/2000/svg"
   xmlns:sodipodi="http://sodipodi.sourceforge.net/DTD/sodipodi-0.dtd"
   xmlns:inkscape="http://www.inkscape.org/namespaces/inkscape"
   viewBox="0 0 24 24"
   version="1.1"
   id="svg6"
   sodipodi:docname="lc_basicstepover.svg"
   inkscape:version="0.92.5 (2060ec1f9f, 2020-04-08)"
   inkscape:export-filename="/home/jupiter007/Libreoffice yaru theme fullcolor/build/cmd/lc_basicstepover.png"
   inkscape:export-xdpi="95"
   inkscape:export-ydpi="95">
  <metadata
     id="metadata12">
    <rdf:RDF>
      <cc:Work
         rdf:about="">
        <dc:format>image/svg+xml</dc:format>
        <dc:type
           rdf:resource="http://purl.org/dc/dcmitype/StillImage" />
      </cc:Work>
    </rdf:RDF>
  </metadata>
  <defs
     id="defs10" />
  <sodipodi:namedview
     pagecolor="#ffffff"
     bordercolor="#666666"
     borderopacity="1"
     objecttolerance="10"
     gridtolerance="10"
     guidetolerance="10"
     inkscape:pageopacity="0"
     inkscape:pageshadow="2"
     inkscape:window-width="1920"
     inkscape:window-height="1011"
     id="namedview8"
     showgrid="true"
     inkscape:zoom="19.666667"
     inkscape:cx="10.355881"
     inkscape:cy="14.193004"
     inkscape:window-x="0"
     inkscape:window-y="32"
     inkscape:window-maximized="1"
     inkscape:current-layer="svg6">
    <inkscape:grid
       type="xygrid"
       id="grid842" />
  </sodipodi:namedview>
  <path
     id="path846"
     d="M 14.015625 0.98242188 L 14 3 L 17 3 C 19 3 19 3 19 5 L 19 6.9882812 L 17.021484 6.9824219 L 20 11 L 23 7 L 21 6.9941406 L 21 4 C 21 2 20 1 18 1 L 14.015625 0.98242188 z "
     style="fill:#000000;fill-opacity:1;stroke:#000000;stroke-width:2;stroke-linecap:butt;stroke-linejoin:round;stroke-opacity:1;opacity:0.6;stroke-miterlimit:4;stroke-dasharray:none" />
  <path
     id="path841"
     d="M 5.9999999,7 C 3.9999998,7 2.9999998,8 2.9999998,10 v 3 c 0,1 -1,1 -1.9999999,1.5 V 15 15.5 C 1.9999998,16 2.9999998,16 2.9999998,17 v 3 c 0,2 1,3 3.0000001,3 h 1 v -2 h -1 C 4.9999998,21 4.9999998,21 4.9999998,20 v -3 c 0,-1 0,-1 -1,-2 1,-1 1,-1 1,-2 v -3 c 0,-1 0,-1 1.0000001,-1 h 1 V 7 Z"
     style="opacity:0.6;fill:#000000;fill-opacity:1;stroke:#000000;stroke-width:2;stroke-linejoin:round;stroke-miterlimit:4;stroke-dasharray:none;stroke-opacity:1"
     inkscape:connector-curvature="0" />
  <path
     style="opacity:1;fill:#ffffff;fill-opacity:1;stroke:none;stroke-width:2;stroke-linejoin:round;stroke-miterlimit:4;stroke-dasharray:none;stroke-opacity:1"
     d="M 5.9999999,7 C 3.9999998,7 2.9999998,8 2.9999998,10 v 3 c 0,1 -1,1 -1.9999999,1.5 V 15 15.5 C 1.9999998,16 2.9999998,16 2.9999998,17 v 3 c 0,2 1,3 3.0000001,3 h 1 v -2 h -1 C 4.9999998,21 4.9999998,21 4.9999998,20 v -3 c 0,-1 0,-1 -1,-2 1,-1 1,-1 1,-2 v -3 c 0,-1 0,-1 1.0000001,-1 h 1 V 7 Z"
     id="rect859"
     inkscape:connector-curvature="0" />
  <path
     inkscape:connector-curvature="0"
     style="opacity:0.6;fill:#000000;fill-opacity:1;stroke:#000000;stroke-width:2;stroke-linejoin:round;stroke-miterlimit:4;stroke-dasharray:none;stroke-opacity:1"
     d="m 12,7 c 2,0 3,1 3,3 v 3 c 0,1 1,1 2,1.5 V 15 15.5 C 16,16 15,16 15,17 v 3 c 0,2 -1,3 -3,3 h -1 v -2 h 1 c 1,0 1,0 1,-1 v -3 c 0,-1 0,-1 1,-2 -1,-1 -1,-1 -1,-2 V 10 C 13,9 13,9 12,9 H 11 V 7 Z"
     id="path843" />
  <path
     inkscape:connector-curvature="0"
     id="path845"
     d="m 12,7 c 2,0 3,1 3,3 v 3 c 0,1 1,1 2,1.5 V 15 15.5 C 16,16 15,16 15,17 v 3 c 0,2 -1,3 -3,3 h -1 v -2 h 1 c 1,0 1,0 1,-1 v -3 c 0,-1 0,-1 1,-2 -1,-1 -1,-1 -1,-2 V 10 C 13,9 13,9 12,9 H 11 V 7 Z"
     style="opacity:1;fill:#ffffff;fill-opacity:1;stroke:none;stroke-width:2;stroke-linejoin:round;stroke-miterlimit:4;stroke-dasharray:none;stroke-opacity:1" />
  <path
     style="fill:#a6d74f;fill-opacity:1;stroke:none;stroke-width:1px;stroke-linecap:butt;stroke-linejoin:miter;stroke-opacity:1"
     d="M 14.015625 0.98242188 L 14 3 L 17 3 C 19 3 19 3 19 5 L 19 6.9882812 L 17.021484 6.9824219 L 20 11 L 23 7 L 21 6.9941406 L 21 4 C 21 2 20 1 18 1 L 14.015625 0.98242188 z "
     id="path833" />
</svg>

<svg xmlns="http://www.w3.org/2000/svg" viewBox="0 0 24 24"><path d="M14.016.982L14 3h3c2 0 2 0 2 2v1.988l-1.979-.006L20 11l3-4-2-.006V4c0-2-1-3-3-3L14.016.982zM6 7c-2 0-3 1-3 3v3c0 1-1 1-2 1.5v1C2 16 3 16 3 17v3c0 2 1 3 3 3h1v-2H6c-1 0-1 0-1-1v-3c0-1 0-1-1-2 1-1 1-1 1-2v-3c0-1 0-1 1-1h1V7z" stroke="#000" stroke-width="2" stroke-linejoin="round" opacity=".6"/><path d="M6 7c-2 0-3 1-3 3v3c0 1-1 1-2 1.5v1C2 16 3 16 3 17v3c0 2 1 3 3 3h1v-2H6c-1 0-1 0-1-1v-3c0-1 0-1-1-2 1-1 1-1 1-2v-3c0-1 0-1 1-1h1V7z" fill="#fff"/><path d="M12 7c2 0 3 1 3 3v3c0 1 1 1 2 1.5v1c-1 .5-2 .5-2 1.5v3c0 2-1 3-3 3h-1v-2h1c1 0 1 0 1-1v-3c0-1 0-1 1-2-1-1-1-1-1-2v-3c0-1 0-1-1-1h-1V7z" opacity=".6" stroke="#000" stroke-width="2" stroke-linejoin="round"/><path d="M12 7c2 0 3 1 3 3v3c0 1 1 1 2 1.5v1c-1 .5-2 .5-2 1.5v3c0 2-1 3-3 3h-1v-2h1c1 0 1 0 1-1v-3c0-1 0-1 1-2-1-1-1-1-1-2v-3c0-1 0-1-1-1h-1V7z" fill="#fff"/><path d="M14.016.982L14 3h3c2 0 2 0 2 2v1.988l-1.979-.006L20 11l3-4-2-.006V4c0-2-1-3-3-3L14.016.982z" fill="#a6d74f"/></svg>
